images/logos/logo.svg

<svg width="409" height="189" viewBox="0 0 409 189" fill="none" xmlns="http://www.w3.org/2000/svg">
<path d="M206.2 128.2H218.5V62.4H206.2V128.2Z" fill="black"/>
<path d="M288.2 120C281.4 126.6 272.6 129.8 263.1 129.8C238.7 129.8 228.3 113 228.3 95.8001C228.2 78.6001 239.4 61.2001 263.1 61.2001C272 61.2001 280.5 64.6001 287.3 71.2001L279 79.2001C274.7 75.0001 268.8 73.0001 263.1 73.0001C247.3 73.0001 240.4 84.9001 240.5 95.8001C240.6 106.7 246.9 118.1 263.1 118.1C268.9 118.1 275.3 115.7 279.7 111.4L288.2 120Z" fill="black"/>
<path d="M336.7 78.3001C334.5 74.5001 328.3 71 321.1 71C311.9 71 307.4 74.8 307.4 79.7C307.4 85.5 314.2 87 322.1 88C335.9 89.7 348.6 93.3 348.6 109C348.6 123.7 335.6 130 321 130C307.6 130 297.2 125.9 292.3 113.9L302.7 108.5C305.6 115.8 313.2 118.9 321.2 118.9C329 118.9 336.3 116.2 336.3 109C336.3 102.8 329.8 100.3 321.1 99.4001C307.6 97.7001 295.3 94.2 295.3 79.5C295.3 66 308.6 60.4 320.8 60.3C331 60.3 341.6 63.2001 346.6 73.3001L336.7 78.3001Z" fill="black"/>
<path d="M375.3 73.7H354.4V62.4C373.3 62.4 389.5 62.4 408.5 62.4V73.7H387.6V128.2H375.2V73.7H375.3Z" fill="black"/>
<path d="M219 39V49.9C219 53.3 216.7 55.4 212.4 55.4C208.2 55.4 205.9 53.3 205.9 49.9V39C205.9 38.7 206.2 38.5 206.9 38.5H207C207.6 38.5 207.9 38.7 207.9 39V49.9C207.9 52 209.8 53.5 212.3 53.5C214.9 53.5 216.8 52 216.8 49.9V39C216.8 38.7 217.1 38.5 217.7 38.5H217.8C218.7 38.4 219 38.7 219 39Z" fill="black"/>
<path d="M250.7 39.7999C250.7 40.1999 250.2 41.2 249.9 41.2C249.6 41.2 248.5 40.0999 246.2 40.0999C242 40.0999 240.6 42.5 240.6 46.7C240.6 50.4 241.8 53.5 245.9 53.5C247.1 53.5 248.3 53.3999 249 53.0999V48.2999H246.2C245.9 48.2999 245.8 48.0999 245.8 47.5999V47.2C245.8 46.7 245.9 46.5 246.2 46.5H250.4C250.9 46.5 251.1 46.7 251.1 47.2V53.5C251.1 54.9 248.5 55.2 245.8 55.2C241.1 55.2 238.5 52.4999 238.5 46.7999C238.5 40.8999 241.2 38.2 246.2 38.2C248.5 38.4 250.7 39.1999 250.7 39.7999Z" fill="black"/>
<path d="M287.1 39V54.7C287.1 55.1 286.8 55.3 286.2 55.3H286.1C285.5 55.3 285.2 55.1 285.2 54.7V41.9L285 42L280.2 50.2L279.7 50.6H278.8L278.3 50.2L273.5 41.8L273.4 41.7V54.6C273.4 55 273.1 55.2 272.5 55.2H272.4C271.8 55.2 271.5 55 271.5 54.6V39C271.5 38.7 271.8 38.5 272.4 38.5H273.3C273.9 38.5 274.2 38.7 274.3 38.9L278.8 46.7L279.4 48.2L280 46.8L284.5 38.9C284.6 38.7 284.9 38.5 285.5 38.5H286.3C286.8 38.4 287.1 38.7 287.1 39Z" fill="black"/>
<path d="M174.9 0L87.7998 46.8L174.9 187.2V0Z" fill="#307ABD"/>
<path d="M87.8002 46.8L0.700195 93.6L174.9 187.2L87.8002 46.8Z" fill="#306BA4"/>
<path d="M0 188.1L59.8 93.6L98.9 114.1L0 188.1Z" fill="#3AB778"/>
<path d="M144.4 138L59.7998 93.6H137.8L144.4 138Z" fill="#8FC74A"/>
<path d="M199.2 23.6L59.7998 93.6H137.8L199.2 23.6Z" fill="#D7DF36"/>
</svg>

<?xml version="1.0" encoding="utf-8"?>
<!-- Generator: Adobe Illustrator 22.1.0, SVG Export Plug-In . SVG Version: 6.00 Build 0)  -->
<svg version="1.1" id="Layer_1" xmlns="http://www.w3.org/2000/svg" xmlns:xlink="http://www.w3.org/1999/xlink" x="0px" y="0px"
	 viewBox="0 0 531.6 188.1" style="enable-background:new 0 0 531.6 188.1;" xml:space="preserve">
<style type="text/css">
	.st0{fill:none;}
	.st1{fill:#307ABD;}
	.st2{fill:#306BA4;}
	.st3{fill:#3AB778;}
	.st4{fill:#8FC74A;}
	.st5{fill:#D7DF36;}
</style>
<g id="Layer_x0020_1">
	<g id="_1916240767312">
		<g id="_1916230172800">
			<polygon points="206.2,128.2 218.5,128.2 218.5,62.4 206.2,62.4 			"/>
			<path d="M288.2,120c-6.8,6.6-15.6,9.8-25.1,9.8c-24.4,0-34.8-16.8-34.8-34c-0.1-17.2,11.1-34.6,34.8-34.6c8.9,0,17.4,3.4,24.2,10
				l-8.3,8c-4.3-4.2-10.2-6.2-15.9-6.2c-15.8,0-22.7,11.9-22.6,22.8c0.1,10.9,6.4,22.3,22.6,22.3c5.8,0,12.2-2.4,16.6-6.7L288.2,120
				L288.2,120z"/>
			<path d="M336.7,78.3c-2.2-3.8-8.4-7.3-15.6-7.3c-9.2,0-13.7,3.8-13.7,8.7c0,5.8,6.8,7.3,14.7,8.3c13.8,1.7,26.5,5.3,26.5,21
				c0,14.7-13,21-27.6,21c-13.4,0-23.8-4.1-28.7-16.1l10.4-5.4c2.9,7.3,10.5,10.4,18.5,10.4c7.8,0,15.1-2.7,15.1-9.9
				c0-6.2-6.5-8.7-15.2-9.6c-13.5-1.7-25.8-5.2-25.8-19.9c0-13.5,13.3-19.1,25.5-19.2c10.2,0,20.8,2.9,25.8,13L336.7,78.3
				L336.7,78.3L336.7,78.3z"/>
			<path d="M375.3,73.7h-20.9V62.4c18.9,0,35.1,0,54.1,0v11.3h-20.9v54.5h-12.4V73.7L375.3,73.7z"/>
		</g>
		<g id="_1916230172928">
			<path d="M219,39v10.9c0,3.4-2.3,5.5-6.6,5.5c-4.2,0-6.5-2.1-6.5-5.5V39c0-0.3,0.3-0.5,1-0.5h0.1c0.6,0,0.9,0.2,0.9,0.5v10.9
				c0,2.1,1.9,3.6,4.4,3.6c2.6,0,4.5-1.5,4.5-3.6V39c0-0.3,0.3-0.5,0.9-0.5h0.1C218.7,38.4,219,38.7,219,39z"/>
			<path d="M250.7,39.8c0,0.4-0.5,1.4-0.8,1.4s-1.4-1.1-3.7-1.1c-4.2,0-5.6,2.4-5.6,6.6c0,3.7,1.2,6.8,5.3,6.8
				c1.2,0,2.4-0.1,3.1-0.4v-4.8h-2.8c-0.3,0-0.4-0.2-0.4-0.7v-0.4c0-0.5,0.1-0.7,0.4-0.7h4.2c0.5,0,0.7,0.2,0.7,0.7v6.3
				c0,1.4-2.6,1.7-5.3,1.7c-4.7,0-7.3-2.7-7.3-8.4c0-5.9,2.7-8.6,7.7-8.6C248.5,38.4,250.7,39.2,250.7,39.8L250.7,39.8z"/>
			<path d="M287.1,39v15.7c0,0.4-0.3,0.6-0.9,0.6h-0.1c-0.6,0-0.9-0.2-0.9-0.6V41.9L285,42l-4.8,8.2l-0.5,0.4h-0.9l-0.5-0.4
				l-4.8-8.4l-0.1-0.1v12.9c0,0.4-0.3,0.6-0.9,0.6h-0.1c-0.6,0-0.9-0.2-0.9-0.6V39c0-0.3,0.3-0.5,0.9-0.5h0.9c0.6,0,0.9,0.2,1,0.4
				l4.5,7.8l0.6,1.5l0.6-1.4l4.5-7.9c0.1-0.2,0.4-0.4,1-0.4h0.8C286.8,38.4,287.1,38.7,287.1,39z"/>
		</g>
		<polygon class="st0" points="87.8,46.8 0.7,93.6 174.9,187.2 		"/>
		<polygon class="st1" points="174.9,0 87.8,46.8 174.9,187.2 		"/>
		<polygon class="st2" points="87.8,46.8 0.7,93.6 174.9,187.2 		"/>
		<polygon class="st3" points="0,188.1 59.8,93.6 98.9,114.1 		"/>
		<polygon class="st4" points="144.4,138 59.8,93.6 137.8,93.6 		"/>
		<path class="st0" d="M59.3,99.8l78.3-5L59.3,99.8z"/>
		<path class="st0" d="M59.3,99.8l78.3-5L59.3,99.8z"/>
		<polygon class="st5" points="199.2,23.6 59.8,93.6 137.8,93.6 		"/>
		<path class="st0" d="M59.3,99.8l78.3-5L59.3,99.8z"/>
		<path class="st0" d="M59.3,99.8l78.3-5L59.3,99.8z"/>
		<path d="M419.3,127.8v-5.5c0-1.7,0.1-3,0.4-4c0.2-0.9,0.6-1.8,1.2-2.5c0.6-0.6,1.3-1.2,2.2-1.7s2.3-0.9,4.2-1.5l7.2-2
			c1.2-0.3,2.1-0.6,2.8-0.9c0.7-0.4,1.2-0.8,1.4-1.2c0.2-0.2,0.4-0.6,0.4-1.2c0.1-0.5,0.1-1.5,0.1-3c0-1.6-0.1-2.7-0.3-3.3
			c-0.2-0.6-0.6-1.1-1.1-1.4c-0.4-0.4-1.3-0.6-2.5-0.7c-1.3-0.1-3.1-0.2-5.4-0.2c-3,0-5,0.3-5.8,1c-0.9,0.6-1.3,2.1-1.3,4.3v1.9
			h-3.7v-2.1c0-3.2,0.8-5.4,2.3-6.6s4.5-1.8,8.8-1.8c2.4,0,4.3,0.1,5.6,0.1c1.2,0.1,2.2,0.4,2.8,0.6c1.5,0.6,2.6,1.6,3.2,2.7
			c0.6,1.1,0.9,3,0.9,5.8c0,3-0.4,5.1-1.4,6.3c-0.9,1.2-2.5,2.2-5,2.8l-9,2.5c-1.9,0.6-3.2,1.2-3.7,1.8c-0.6,0.6-0.9,1.6-0.9,2.8
			v3.5h19.9v3.4H419.3L419.3,127.8L419.3,127.8z"/>
		<path id="_1" d="M459.4,124.8h2.8c1.7,0,3-0.1,3.7-0.4c0.8-0.2,1.4-0.6,1.9-1.1c0.5-0.5,0.9-1.2,1.1-2s0.3-2.2,0.3-4.2v-0.5v-10.2
			c0-2.1-0.1-3.5-0.3-4.3s-0.6-1.4-1.1-1.9c-0.5-0.6-1.2-0.9-2-1.2c-0.8-0.3-2-0.4-3.6-0.4h-2.8c-1.7,0-3,0.1-3.7,0.3
			c-0.8,0.2-1.4,0.6-1.9,1.2s-0.9,1.2-1,2c-0.2,0.8-0.4,2.2-0.4,4.3v0.5v10.2c0,2.1,0.1,3.5,0.4,4.3c0.1,0.8,0.5,1.5,1,2
			c0.5,0.5,1.2,0.9,1.9,1.1C456.5,124.8,457.7,124.8,459.4,124.8z M459.3,128.2c-3.9,0-6.6-0.8-8.1-2.4c-1.6-1.7-2.4-4.5-2.4-8.6
			v-10.9c0-4.1,0.8-6.9,2.4-8.6c1.5-1.6,4.2-2.4,8.1-2.4h3.1c3.9,0,6.6,0.8,8.2,2.4c1.5,1.7,2.3,4.5,2.3,8.6v10.9
			c0,4.1-0.8,7-2.3,8.6c-1.6,1.6-4.3,2.4-8.2,2.4H459.3z"/>
		<path d="M478.2,127.8v-5.5c0-1.7,0.1-3,0.4-4c0.2-0.9,0.6-1.8,1.2-2.5c0.6-0.6,1.3-1.2,2.2-1.7s2.3-0.9,4.2-1.5l7.2-2
			c1.2-0.3,2.1-0.6,2.8-0.9c0.7-0.4,1.2-0.8,1.4-1.2c0.2-0.2,0.4-0.6,0.4-1.2c0.1-0.5,0.1-1.5,0.1-3c0-1.6-0.1-2.7-0.3-3.3
			c-0.2-0.6-0.6-1.1-1.1-1.4c-0.4-0.4-1.3-0.6-2.5-0.7c-1.3-0.1-3.1-0.2-5.4-0.2c-3,0-5,0.3-5.8,1c-0.9,0.6-1.3,2.1-1.3,4.3v1.9
			h-3.7v-2.1c0-3.2,0.8-5.4,2.3-6.6s4.5-1.8,8.8-1.8c2.4,0,4.3,0.1,5.6,0.1c1.2,0.1,2.2,0.4,2.8,0.6c1.5,0.6,2.6,1.6,3.2,2.7
			c0.6,1.1,0.9,3,0.9,5.8c0,3-0.4,5.1-1.4,6.3c-0.9,1.2-2.5,2.2-5,2.8l-9,2.5c-1.9,0.6-3.2,1.2-3.7,1.8c-0.6,0.6-0.9,1.6-0.9,2.8
			v3.5h19.9v3.4H478.2L478.2,127.8L478.2,127.8z"/>
		<path id="_1_1_" d="M518.3,124.8h2.8c1.7,0,3-0.1,3.7-0.4c0.8-0.2,1.4-0.6,1.9-1.1c0.5-0.5,0.9-1.2,1.1-2s0.3-2.2,0.3-4.2v-0.5
			v-10.2c0-2.1-0.1-3.5-0.3-4.3s-0.6-1.4-1.1-1.9c-0.5-0.6-1.2-0.9-2-1.2c-0.8-0.3-2-0.4-3.6-0.4h-2.8c-1.7,0-3,0.1-3.7,0.3
			c-0.8,0.2-1.4,0.6-1.9,1.2c-0.5,0.5-0.9,1.2-1,2c-0.2,0.8-0.4,2.2-0.4,4.3v0.5v10.2c0,2.1,0.1,3.5,0.4,4.3c0.1,0.8,0.5,1.5,1,2
			c0.5,0.5,1.2,0.9,1.9,1.1C515.4,124.8,516.6,124.8,518.3,124.8z M518.2,128.2c-3.9,0-6.6-0.8-8.1-2.4c-1.6-1.7-2.4-4.5-2.4-8.6
			v-10.9c0-4.1,0.8-6.9,2.4-8.6c1.5-1.6,4.2-2.4,8.1-2.4h3.1c3.9,0,6.6,0.8,8.2,2.4c1.5,1.7,2.3,4.5,2.3,8.6v10.9
			c0,4.1-0.8,7-2.3,8.6c-1.6,1.6-4.3,2.4-8.2,2.4H518.2z"/>
	</g>
</g>
</svg>
